assets/icons/shield-stroke-24.svg

<svg width="24" height="24" viewBox="0 0 24 24" fill="none" xmlns="http://www.w3.org/2000/svg">
<path fill-rule="evenodd" clip-rule="evenodd" d="M12.4905 3.15403C12.1854 2.98402 11.8146 2.98402 11.5095 3.15403L4.95963 6.80495C4.29279 7.17664 3.95221 7.82795 4.03225 8.43851C4.43866 11.5382 5.90623 14.7393 7.6221 17.1679C8.47767 18.3788 9.37147 19.3639 10.188 20.0346C11.0441 20.7378 11.6665 20.9735 12 20.9735C12.3335 20.9735 12.9559 20.7378 13.812 20.0346C14.6285 19.3639 15.5223 18.3788 16.3779 17.1679C18.0938 14.7393 19.5613 11.5382 19.9677 8.4385C20.0478 7.82795 19.7072 7.17664 19.0404 6.80495L12.4905 3.15403ZM10.5286 1.38253C11.4437 0.872489 12.5563 0.872488 13.4714 1.38253L20.0213 5.03345C21.2781 5.73401 22.1773 7.12431 21.9703 8.7028C21.5113 12.2035 19.8835 15.7105 18.0257 18.3398C17.0944 19.6579 16.0819 20.7892 15.0915 21.6027C14.1406 22.3837 13.0556 23 12 23C10.9444 23 9.85938 22.3837 8.90852 21.6027C7.91813 20.7892 6.90556 19.6579 5.97431 18.3399C4.11654 15.7105 2.48866 12.2035 2.02969 8.70281C1.82273 7.12432 2.72188 5.73401 3.97872 5.03345L10.5286 1.38253Z" fill="#F2F2F2"/>
</svg>

<svg xmlns="http://www.w3.org/2000/svg" width="24" height="24" viewBox="0 0 24 24"><path fill-rule="evenodd" d="M12.49 3.154a1.007 1.007 0 00-.98 0L4.96 6.805c-.667.372-1.008 1.023-.928 1.634.407 3.1 1.874 6.3 3.59 8.729.856 1.21 1.75 2.196 2.566 2.867.856.703 1.478.939 1.812.939.334 0 .956-.236 1.812-.94.817-.67 1.71-1.655 2.566-2.866 1.716-2.429 3.183-5.63 3.59-8.73.08-.61-.26-1.261-.928-1.633l-6.55-3.651zm-1.96-1.771a3.021 3.021 0 012.942 0l6.55 3.65c1.257.701 2.156 2.091 1.95 3.67-.46 3.5-2.087 7.008-3.945 9.637-.932 1.318-1.944 2.45-2.934 3.263C14.14 22.383 13.056 23 12 23s-2.14-.616-3.091-1.397c-.99-.814-2.003-1.945-2.935-3.263-1.857-2.63-3.485-6.136-3.944-9.637-.207-1.579.692-2.969 1.949-3.67l6.55-3.65z"/></svg>
